apps/scalable/reload.svg

<svg xmlns="http://www.w3.org/2000/svg" style="isolation:isolate" width="256" height="256" viewBox="0 0 256 256">
 <defs>
  <filter id="3KRIWS82DAv2CgLgGtw628iQqMPb4os4" width="400%" height="400%" x="-200%" y="-200%" color-interpolation-filters="sRGB" filterUnits="objectBoundingBox">
   <feGaussianBlur xmlns="http://www.w3.org/2000/svg" in="SourceGraphic" stdDeviation="4.294"/>
   <feOffset xmlns="http://www.w3.org/2000/svg" dx="0" dy="4" result="pf_100_offsetBlur"/>
   <feFlood xmlns="http://www.w3.org/2000/svg" flood-opacity=".4"/>
   <feComposite xmlns="http://www.w3.org/2000/svg" in2="pf_100_offsetBlur" operator="in" result="pf_100_dropShadow"/>
   <feBlend xmlns="http://www.w3.org/2000/svg" in="SourceGraphic" in2="pf_100_dropShadow" mode="normal"/>
  </filter>
 </defs>
 <g filter="url(#3KRIWS82DAv2CgLgGtw628iQqMPb4os4)">
  <linearGradient id="_lgradient_2" x1=".233" x2=".933" y1="-.071" y2=".995" gradientTransform="matrix(244.648309,0,0,228.338396,5.675856,11.946964)" gradientUnits="userSpaceOnUse">
   <stop offset="0%" style="stop-color:rgb(232,232,232)"/>
   <stop offset="100%" style="stop-color:rgb(245,245,245)"/>
  </linearGradient>
  <path fill="url(#_lgradient_2)" d="M 165.684774 11.946964 C 239.740482 11.946964 250.324165 22.504162 250.324165 96.490822 L 250.324165 155.741617 C 250.324165 229.727874 239.740482 240.28536 165.684774 240.28536 L 90.315249 240.28536 C 16.259545 240.28536 5.675856 229.727874 5.675856 155.741617 L 5.675856 96.490822 C 5.675856 22.504162 16.259545 11.946964 90.315249 11.946964 L 165.684774 11.946964 Z"/>
 </g>
 <g opacity=".4">
  <linearGradient id="_lgradient_3" x1=".517" x2=".517" y1="0" y2="1">
   <stop offset="0%" style="stop-color:rgb(255,255,255)"/>
   <stop offset="12.5%" stop-opacity=".098" style="stop-color:rgb(255,255,255)"/>
   <stop offset="92.5%" stop-opacity=".098" style="stop-color:rgb(0,0,0)"/>
   <stop offset="100%" stop-opacity=".498" style="stop-color:rgb(0,0,0)"/>
  </linearGradient>
  <path fill="none" stroke="url(#_lgradient_3)" stroke-linecap="round" stroke-linejoin="round" stroke-width="4.077" d="M 165.68477 11.946993 C 239.740477 11.946993 250.324166 22.504193 250.324166 96.490823 L 250.324166 155.741586 C 250.324166 229.727914 239.740477 240.285417 165.68477 240.285417 L 90.315251 240.285417 C 16.259544 240.285417 5.675855 229.727914 5.675855 155.741586 L 5.675855 96.490823 C 5.675855 22.504193 16.259544 11.946993 90.315251 11.946993 L 165.68477 11.946993 Z" vector-effect="non-scaling-stroke"/>
 </g>
 <g>
  <defs>
   <filter id="WrF760g6CnLv1luO1ZaiT2zJfjqQpABx" width="400%" height="400%" x="-200%" y="-200%" color-interpolation-filters="sRGB" filterUnits="objectBoundingBox">
    <feGaussianBlur xmlns="http://www.w3.org/2000/svg" stdDeviation="1.76"/>
   </filter>
  </defs>
  <g opacity=".1" filter="url(#WrF760g6CnLv1luO1ZaiT2zJfjqQpABx)">
   <path fill-opacity=".996" d="M 127.999997 209.5 C 173.275727 209.5 210.033876 172.741851 210.033876 127.466121 C 210.033876 82.19039 173.275727 45.432241 127.999997 45.432241 C 82.724267 45.432241 45.966117 82.19039 45.966117 127.466121 C 45.966117 172.741851 82.724267 209.5 127.999997 209.5 Z"/>
  </g>
  <defs>
   <filter id="px1VwhZ0QRlMXejES0RKJqdfwuabQOqE" width="400%" height="400%" x="-200%" y="-200%" color-interpolation-filters="sRGB" filterUnits="objectBoundingBox">
    <feGaussianBlur xmlns="http://www.w3.org/2000/svg" stdDeviation="14.08"/>
   </filter>
  </defs>
  <g opacity=".4" filter="url(#px1VwhZ0QRlMXejES0RKJqdfwuabQOqE)">
   <linearGradient id="_lgradient_4" x1="0" x2="1" y1=".5" y2=".5" gradientTransform="matrix(0,-164.067759,-164.067759,0,210.033873,209.5)" gradientUnits="userSpaceOnUse">
    <stop offset="0%" stop-opacity="0" style="stop-color:rgb(0,0,0)"/>
    <stop offset="49.903%" style="stop-color:rgb(0,0,0)"/>
    <stop offset="100%" stop-opacity="0" style="stop-color:rgb(0,0,0)"/>
   </linearGradient>
   <path fill="url(#_lgradient_4)" d="M 127.999993 209.5 C 173.275723 209.5 210.033873 172.741851 210.033873 127.466121 C 210.033873 82.19039 173.275723 45.432241 127.999993 45.432241 C 82.724263 45.432241 45.966114 82.19039 45.966114 127.466121 C 45.966114 172.741851 82.724263 209.5 127.999993 209.5 Z"/>
  </g>
  <path fill="#F7F7F7" d="M 127.999995 208.567766 C 173.275727 208.567766 210.033878 171.809615 210.033878 126.533883 C 210.033878 81.258151 173.275727 44.5 127.999995 44.5 C 82.724263 44.5 45.966112 81.258151 45.966112 126.533883 C 45.966112 171.809615 82.724263 208.567766 127.999995 208.567766 Z"/>
  <path fill="#FFFFFF" d="M 127.999995 202.042355 C 169.159753 202.042355 202.576256 168.625853 202.576256 127.466094 C 202.576256 86.306335 169.159753 52.889833 127.999995 52.889833 C 86.840236 52.889833 53.423734 86.306335 53.423734 127.466094 C 53.423734 168.625853 86.840236 202.042355 127.999995 202.042355 Z"/>
  <path fill="#813352" d="M 127.999995 201.110144 C 169.159753 201.110144 202.576256 167.693642 202.576256 126.533883 C 202.576256 85.374124 169.159753 51.957622 127.999995 51.957622 C 86.840236 51.957622 53.423734 85.374124 53.423734 126.533883 C 53.423734 167.693642 86.840236 201.110144 127.999995 201.110144 Z"/>
  <path fill="#FFFFFF" d="M 127.999994 44.500043 C 82.693934 44.500043 45.966116 81.227881 45.966113 126.533875 C 45.977637 126.791877 45.99038 127.04988 46.004339 127.307777 C 46.600838 82.443002 83.131331 46.381372 128.000008 46.364443 C 172.990698 46.383376 209.571286 82.635819 209.995656 127.624531 C 210.010819 127.261049 210.023568 126.897568 210.033892 126.533875 C 210.033879 81.227881 173.306068 44.500043 128.000008 44.500043 L 127.999994 44.500043 Z"/>
  <path fill="#FFFFFF" class="ColorScheme-Text" d="M 128 78 C 118.759856 78 110.166078 80.661112 102.739583 85.03125 L 107.427083 89.71875 L 108.989583 91.28125 L 125.135417 107.427083 L 131.125 101.4375 L 117.583333 87.895833 C 119.211167 87.470083 120.832186 87.081535 122.53125 86.854167 C 122.967969 86.789261 123.391906 86.644304 123.833333 86.59375 C 125.234045 86.4515 126.561758 86.333333 128 86.333333 C 151.011867 86.333333 169.666667 104.988133 169.666667 128 C 169.666667 130.0252 169.429583 132.045902 169.145833 133.989583 C 168.979542 135.124994 168.88095 136.271277 168.625 137.375 C 168.067083 139.763179 167.236275 141.938533 166.28125 144.145833 C 166.17065 144.401461 166.13645 144.674158 166.020833 144.927083 C 165.679492 145.6909 165.118708 146.288192 164.71875 147.010417 C 164.681642 147.077425 164.75485 147.202525 164.71875 147.270833 L 170.96875 153.260417 C 175.338892 145.833925 178 137.24015 178 128 C 178 100.385758 155.614225 78 128 78 Z M 85.03125 102.739583 C 80.66111 110.166078 78 118.75985 78 128 C 78 155.614242 100.385778 178 128 178 C 137.240144 178 145.833925 175.338892 153.260417 170.96875 L 148.572917 166.28125 L 147.010417 164.71875 L 130.864583 148.833333 L 125.135417 154.5625 L 138.416667 168.104167 C 136.788833 168.529917 135.167814 168.918467 133.46875 169.145833 C 133.032031 169.210742 132.608094 169.3557 132.166667 169.40625 C 130.765955 169.5485 129.438242 169.666667 128 169.666667 C 126.561758 169.666667 125.234045 169.5485 123.833333 169.40625 C 122.432622 169.264 121.022867 169.162933 119.666667 168.885417 C 100.679872 165.000158 86.333333 148.135383 86.333333 128 C 86.333333 125.931145 86.562994 123.998448 86.854167 122.010417 C 87.020463 120.875006 87.119054 119.728723 87.375 118.625 C 87.932918 116.236821 88.763721 114.061467 89.71875 111.854167 C 89.827022 111.598183 89.865954 111.326255 89.979167 111.072917 C 90.317654 110.332413 90.884268 109.700121 91.28125 108.989583 L 91.28125 108.729167 L 85.03125 102.739583 Z"/>
 </g>
</svg>

<svg xmlns="http://www.w3.org/2000/svg" style="isolation:isolate" width="256" height="256"><defs><filter id="a" width="400%" height="400%" x="-200%" y="-200%" color-interpolation-filters="sRGB" filterUnits="objectBoundingBox"><feGaussianBlur xmlns="http://www.w3.org/2000/svg" in="SourceGraphic" stdDeviation="4.294"/><feOffset xmlns="http://www.w3.org/2000/svg" dy="4" result="pf_100_offsetBlur"/><feFlood xmlns="http://www.w3.org/2000/svg" flood-opacity=".4"/><feComposite xmlns="http://www.w3.org/2000/svg" in2="pf_100_offsetBlur" operator="in" result="pf_100_dropShadow"/><feBlend xmlns="http://www.w3.org/2000/svg" in="SourceGraphic" in2="pf_100_dropShadow"/></filter></defs><g filter="url(#a)"><linearGradient id="b" x1=".233" x2=".933" y1="-.071" y2=".995" gradientTransform="matrix(244.6483 0 0 228.3384 5.676 11.947)" gradientUnits="userSpaceOnUse"><stop offset="0%" stop-color="#e8e8e8"/><stop offset="100%" stop-color="#f5f5f5"/></linearGradient><path fill="url(#b)" d="M165.685 11.947c74.055 0 84.64 10.557 84.64 84.544v59.25c0 73.987-10.585 84.544-84.64 84.544h-75.37c-74.055 0-84.64-10.557-84.64-84.543V96.49c0-73.987 10.585-84.544 84.64-84.544h75.37z"/></g><g opacity=".4"><linearGradient id="c" x1=".517" x2=".517" y2="1"><stop offset="0%" stop-color="#fff"/><stop offset="12.5%" stop-opacity=".098" stop-color="#fff"/><stop offset="92.5%" stop-opacity=".098"/><stop offset="100%" stop-opacity=".498"/></linearGradient><path fill="none" stroke="url(#c)" stroke-linecap="round" stroke-linejoin="round" stroke-width="4.077" d="M165.685 11.947c74.055 0 84.64 10.557 84.64 84.544v59.25c0 73.987-10.585 84.544-84.64 84.544h-75.37c-74.055 0-84.64-10.557-84.64-84.543V96.49c0-73.987 10.585-84.544 84.64-84.544h75.37z" vector-effect="non-scaling-stroke"/></g><defs><filter id="d" width="400%" height="400%" x="-200%" y="-200%" color-interpolation-filters="sRGB" filterUnits="objectBoundingBox"><feGaussianBlur xmlns="http://www.w3.org/2000/svg" stdDeviation="1.76"/></filter></defs><path fill-opacity=".996" d="M128 209.5c45.276 0 82.034-36.758 82.034-82.034S173.276 45.432 128 45.432 45.966 82.19 45.966 127.466 82.724 209.5 128 209.5z" opacity=".1" filter="url(#d)"/><defs><filter id="e" width="400%" height="400%" x="-200%" y="-200%" color-interpolation-filters="sRGB" filterUnits="objectBoundingBox"><feGaussianBlur xmlns="http://www.w3.org/2000/svg" stdDeviation="14.08"/></filter></defs><g opacity=".4" filter="url(#e)"><linearGradient id="f" x2="1" y1=".5" y2=".5" gradientTransform="matrix(0 -164.06776 -164.06776 0 210.034 209.5)" gradientUnits="userSpaceOnUse"><stop offset="0%" stop-opacity="0"/><stop offset="49.903%"/><stop offset="100%" stop-opacity="0"/></linearGradient><path fill="url(#f)" d="M128 209.5c45.276 0 82.034-36.758 82.034-82.034S173.276 45.432 128 45.432 45.966 82.19 45.966 127.466 82.724 209.5 128 209.5z"/></g><path fill="#F7F7F7" d="M128 208.568c45.276 0 82.034-36.758 82.034-82.034S173.276 44.5 128 44.5s-82.034 36.758-82.034 82.034S82.724 208.568 128 208.568z"/><path fill="#FFF" d="M128 202.042c41.16 0 74.576-33.416 74.576-74.576S169.16 52.89 128 52.89s-74.576 33.416-74.576 74.576S86.84 202.042 128 202.042z"/><path fill="#813352" d="M128 201.11c41.16 0 74.576-33.416 74.576-74.576S169.16 51.958 128 51.958s-74.576 33.416-74.576 74.576S86.84 201.11 128 201.11z"/><path fill="#FFF" d="M128 44.5c-45.306 0-82.034 36.728-82.034 82.034.012.258.024.516.038.774C46.601 82.443 83.131 46.38 128 46.364c44.99.02 81.571 36.272 81.996 81.26.015-.363.028-.726.038-1.09 0-45.306-36.728-82.034-82.034-82.034z"/><path fill="#FFF" class="ColorScheme-Text" d="M128 78c-9.24 0-17.834 2.661-25.26 7.031l4.687 4.688 1.563 1.562 16.145 16.146 5.99-5.99-13.542-13.541c1.628-.426 3.25-.814 4.948-1.042.437-.065.86-.21 1.302-.26 1.401-.142 2.729-.26 4.167-.26 23.012 0 41.667 18.654 41.667 41.666 0 2.025-.237 4.046-.521 5.99-.166 1.135-.265 2.281-.521 3.385-.558 2.388-1.389 4.564-2.344 6.77-.11.256-.145.53-.26.782-.342.764-.902 1.361-1.302 2.083-.037.067.036.193 0 .26l6.25 5.99c4.37-7.426 7.031-16.02 7.031-25.26 0-27.614-22.386-50-50-50zm-42.969 24.74C80.661 110.166 78 118.76 78 128c0 27.614 22.386 50 50 50 9.24 0 17.834-2.661 25.26-7.031l-4.687-4.688-1.563-1.562-16.145-15.886-5.73 5.73 13.282 13.541c-1.628.426-3.25.814-4.948 1.042-.437.065-.86.21-1.302.26-1.401.142-2.729.26-4.167.26-1.438 0-2.766-.118-4.167-.26-1.4-.142-2.81-.243-4.166-.52C100.68 165 86.333 148.135 86.333 128c0-2.069.23-4.002.521-5.99.166-1.135.265-2.281.521-3.385.558-2.388 1.389-4.564 2.344-6.77.108-.257.147-.529.26-.782.339-.74.905-1.373 1.302-2.083v-.26l-6.25-5.99z"/></svg>
